svgs/solid/trash-check.svg

<svg xmlns="http://www.w3.org/2000/svg" viewBox="0 0 448 512"><!--! Font Awesome Pro 6.1.2 by @fontawesome - https://fontawesome.com License - https://fontawesome.com/license (Commercial License) Copyright 2022 Fonticons, Inc. --><path d="M284.2 0C296.3 0 307.4 6.848 312.8 17.69L320 32H416C433.7 32 448 46.33 448 64C448 81.67 433.7 96 416 96H32C14.33 96 0 81.67 0 64C0 46.33 14.33 32 32 32H128L135.2 17.69C140.6 6.848 151.7 0 163.8 0H284.2zM31.1 128H416L394.8 466.1C393.2 492.3 372.3 512 346.9 512H101.1C75.75 512 54.77 492.3 53.19 466.1L31.1 128zM339.8 251.8C350.7 240.9 350.7 223.1 339.8 212.2C328.9 201.3 311.1 201.3 300.2 212.2L192 320.4L147.8 276.2C136.9 265.3 119.1 265.3 108.2 276.2C97.27 287.1 97.27 304.9 108.2 315.8L172.2 379.8C183.1 390.7 200.9 390.7 211.8 379.8L339.8 251.8z"/></svg>

<svg xmlns="http://www.w3.org/2000/svg" viewBox="0 0 448 512"><!--! Font Awesome Pro 6.2.0 by @fontawesome - https://fontawesome.com License - https://fontawesome.com/license (Commercial License) Copyright 2022 Fonticons, Inc. --><path d="M163.8 0H284.2c12.1 0 23.2 6.8 28.6 17.7L320 32h96c17.7 0 32 14.3 32 32s-14.3 32-32 32H32C14.3 96 0 81.7 0 64S14.3 32 32 32h96l7.2-14.3C140.6 6.8 151.7 0 163.8 0zM32 128H416L394.8 467c-1.6 25.3-22.6 45-47.9 45H101.1c-25.3 0-46.3-19.7-47.9-45L32 128zM339.8 251.8c10.9-10.9 10.9-28.7 0-39.6s-28.7-10.9-39.6 0L192 320.4l-44.2-44.2c-10.9-10.9-28.7-10.9-39.6 0s-10.9 28.7 0 39.6l64 64c10.9 10.9 28.7 10.9 39.6 0l128-128z"/></svg>
